X: 18716
T: Ian Green Of Greentrax
R: reel
M: 4/4
K: Amixolydian
a2|:BccB A2BA-|Accd e2cA|AddA defg|f2e2 e3d|
BccB A2BA-|Accd e2dc|cddc AAAG|1 A4 A2a2:|2 A4 Aeef||
|:g2e2 e3f|geef geag|f2e2 e3f|geef g2ae|
g2e2 e3f|geef g2ag|eAdc AAAG|1 A4 Aeef:|2 A4 A2a2||
|:AccA ccAc|cAdA ccAd|dAeA ddAe|eAdA eAdc|
AccA ccAc|cAdA ccce|cddc AAAG|1 A4 A2a2:|2 A4 Aeef||
|:g2e2 e3f|geef geae|g2e2 e2dA|edAf dAaA|
g2e2 e3f|geef g2ag|eAdc AAAG|1 A4 Aeef:|2 A4 A2||

